src/img/stars.svg

<svg width="86" height="94" viewBox="0 0 86 94" fill="none" xmlns="http://www.w3.org/2000/svg">
<path d="M38.8164 54.5992L38.8888 54.8924L39.182 54.9648L63.281 60.9141L39.182 66.8633L38.8888 66.9357L38.8164 67.2289L32.8672 91.3279L26.9179 67.2289L26.8456 66.9357L26.5524 66.8633L2.45338 60.9141L26.5524 54.9648L26.8456 54.8924L26.9179 54.5992L32.8672 30.5003L38.8164 54.5992Z" stroke="#404040"/>
<path d="M63.3672 0.414062L67.723 18.0583L85.3672 22.4141L67.723 26.7698L63.3672 44.4141L59.0114 26.7698L41.3672 22.4141L59.0114 18.0583L63.3672 0.414062Z" fill="#4361EE"/>
</svg>

<svg xmlns="http://www.w3.org/2000/svg" width="86" height="94" fill="none" xmlns:v="https://vecta.io/nano"><path d="M38.816 54.599l.072.293.293.072 24.099 5.949-24.099 5.949-.293.072-.072.293-5.949 24.099-5.949-24.099-.072-.293-.293-.072-24.099-5.949 24.099-5.949.293-.072.072-.293L32.867 30.5l5.949 24.099z" stroke="#404040"/><path d="M63.367.414l4.356 17.644 17.644 4.356-17.644 4.356-4.356 17.644-4.356-17.644-17.644-4.356 17.644-4.356L63.367.414z" fill="#4361ee"/></svg>
